astica-dark/24/actions/zoom-out-y.svg

<svg xmlns="http://www.w3.org/2000/svg" viewBox="0 0 24 24">
  <defs id="defs3051">
    <style type="text/css" id="current-color-scheme">
      .ColorScheme-Text {
        color:#d3dae3;
      }
      </style>
  </defs>
 <path style="fill:currentColor;fill-opacity:1;stroke:none" 
     d="M 4 4 L 4 6 L 5 6 L 5 5 L 6 5 L 6 4 L 4 4 z M 8 4 L 8 5 L 9 5 L 9 6 L 10 6 L 10 4 L 8 4 z M 13 4 L 13 5 L 19 5 L 19 11 L 20 11 L 20 5 L 20 4 L 13 4 z M 4 8 L 4 10 L 6 10 L 6 9 L 5 9 L 5 8 L 4 8 z M 9 8 L 9 9 L 8 9 L 8 10 L 10 10 L 10 8 L 9 8 z M 4 13 L 4 20 L 5 20 L 11 20 L 11 19 L 5 19 L 5 13 L 4 13 z M 15.998047 13.429688 L 15.998047 18.085938 L 14.376953 16.464844 L 13.669922 17.171875 L 15.791016 19.292969 L 16.498047 20 L 19.328125 17.171875 L 18.621094 16.464844 L 16.998047 18.085938 L 16.998047 13.429688 L 15.998047 13.429688 z "
     class="ColorScheme-Text"
     />
</svg>

<svg version="1.1" viewBox="0 0 24 24" xmlns="http://www.w3.org/2000/svg">
 <defs>
  <style id="current-color-scheme" type="text/css">.ColorScheme-Text {
        color:#dedede;
      }</style>
 </defs>
 <path d="m6 4c-1.108 0-2 0.892-2 2h1c0-0.554 0.446-1 1-1v-1zm2 0v1c0.554 0 1 0.446 1 1h1c0-1.108-0.892-2-2-2zm5 0v1h5c0.554 0 1 0.446 1 1v5h1v-5c0-1.108-0.892-2-2-2h-5zm-9 4c0 1.108 0.892 2 2 2v-1c-0.554 0-1-0.446-1-1h-1zm5 0c0 0.554-0.446 1-1 1v1c1.108 0 2-0.892 2-2h-1zm-5 5v5c0 1.108 0.892 2 2 2h5v-1h-5c-0.554 0-1-0.446-1-1v-5h-1zm11.998 0.42969v4.6562l-1.6211-1.6211-0.70703 0.70703 2.8281 2.8281 2.8301-2.8281-0.70703-0.70703-1.623 1.6211v-4.6562h-1z" style="fill:currentColor" class="ColorScheme-Text"/>
</svg>
